static/images/home-intro-bg.svg

<svg width="1920" height="798" fill="none" xmlns="http://www.w3.org/2000/svg"><path d="M0 0h1920v680.663L0 796.699V0Z" fill="#030931"/><mask id="a" style="mask-type:alpha" maskUnits="userSpaceOnUse" x="0" y="0" width="1920" height="798"><path d="M0 .105h1920v679.467L0 798V.105Z" fill="#030931"/></mask><g filter="url(#b)" mask="url(#a)"><path d="M1317.85 428.924c-15.16 68.393 21.21 105.121-97.35 167.92-107.39 56.883-285.483-59.552-295.163-156.088-8.897-88.718 101.303-164.338 222.773-172.471 137.62-9.213 191.78 61.153 169.74 160.639Z" fill="#38D99E" fill-opacity=".84"/><path d="M1551.3 883.278c-14.72 66.357 20.62 101.992-94.59 162.922-104.36 55.19-277.41-57.78-286.82-151.443-8.65-86.077 98.44-159.447 216.48-167.337 133.72-8.939 186.36 59.332 164.93 155.858Z" fill="#38D99E" fill-opacity=".36"/><path d="M2148.3 53.297c-15.91 71.649 22.26 110.126-102.16 175.916-112.71 59.591-299.61-62.388-309.77-163.521-9.34-92.942 106.32-172.164 233.8-180.684 144.42-9.652 201.26 64.065 178.13 168.289ZM275.624 285.785c-12.905 56.383 18.068 86.662-82.9 138.434-91.454 46.894-243.113-49.095-251.357-128.68-7.576-73.139 86.271-135.481 189.714-142.186 117.19-7.595 163.317 50.415 144.543 132.432ZM1317.98-61.687c-14.73 66.357 20.62 101.992-94.59 162.922-104.36 55.19-277.416-57.78-286.823-151.442-8.645-86.078 98.443-159.448 216.473-167.338 133.73-8.939 186.36 59.333 164.94 155.858ZM1820.94 520.55c-10.97 49.463 15.37 76.025-70.51 121.442-77.8 41.138-206.8-43.069-213.81-112.885-6.45-64.162 73.38-118.852 161.37-124.733 99.69-6.663 138.92 44.226 122.95 116.176ZM347.783 572.82c10.978 49.463-15.369 76.025 70.517 121.443 77.793 41.138 206.797-43.07 213.81-112.886 6.445-64.161-73.384-118.851-161.375-124.733-99.684-6.663-138.921 44.226-122.952 116.176Z" fill="#38D99E" fill-opacity=".4"/><path d="M2007.96 593.396c0 77.264-174.84 192.609-298.69 156.811-91.74-26.518-27.4-92.87-27.4-170.135 0-77.265 42.32-88.142 148.28-88.142 105.96 0 177.81 24.201 177.81 101.466ZM-59.063 622.093c0 77.265 174.835 192.609 298.683 156.811 91.742-26.518 27.408-92.87 27.408-170.135 0-77.264-42.326-88.142-148.287-88.142-105.96 0-177.803 24.202-177.803 101.466Z" fill="#656BFF" fill-opacity=".3"/><path d="M982.46 831.879c0 88.449-200.938 228.701-388.517 187.721-138.953-30.354-194.791-157.936-194.791-246.385 0-88.449 64.106-100.901 224.595-100.901 160.488 0 358.713 71.115 358.713 159.565ZM1539.06 24.153c0 58.285-132.66 150.707-256.51 123.703-91.74-20.004-128.61-104.075-128.61-162.36 0-58.284 42.33-66.49 148.29-66.49s236.83 46.863 236.83 105.147ZM1554.52 409.519c0 58.284-132.66 150.706-256.51 123.702-91.74-20.004-128.61-104.075-128.61-162.359 0-58.285 42.33-66.49 148.29-66.49s236.83 46.862 236.83 105.147ZM988.083 277.082c0 65.357-148.917 168.994-287.933 138.713-102.978-22.431-298.187-152.761-298.187-218.119 0-65.357 201.336-38.5 320.275-38.5 118.939 0 265.845 52.549 265.845 117.906Z" fill="#7D82FF" fill-opacity=".4"/></g><defs><filter id="b" x="-259.062" y="-418.331" width="2612.36" height="1679.08" filterUnits="userSpaceOnUse" color-interpolation-filters="sRGB"><feFlood flood-opacity="0" result="BackgroundImageFix"/><feBlend in="SourceGraphic" in2="BackgroundImageFix" result="shape"/><feGaussianBlur stdDeviation="100" result="effect1_foregroundBlur_3001_172882"/></filter></defs></svg>

<svg width="1920" height="798" viewBox="0 0 1920 798" fill="none" xmlns="http://www.w3.org/2000/svg">
<path d="M0 0H1920V680.663L0 796.699V0Z" fill="#030931"/>
<mask id="mask0_3001_172882" style="mask-type:alpha" maskUnits="userSpaceOnUse" x="0" y="0" width="1920" height="798">
<path d="M0 0.10498H1920V679.572L0 798V0.10498Z" fill="#030931"/>
</mask>
<g mask="url(#mask0_3001_172882)">
<g filter="url(#filter0_f_3001_172882)">
<path d="M1317.85 428.924C1302.69 497.317 1339.06 534.045 1220.5 596.844C1113.11 653.727 935.017 537.292 925.337 440.756C916.44 352.038 1026.64 276.418 1148.11 268.285C1285.73 259.072 1339.89 329.438 1317.85 428.924Z" fill="#38D99E" fill-opacity="0.84"/>
<path d="M1551.3 883.278C1536.58 949.635 1571.92 985.27 1456.71 1046.2C1352.35 1101.39 1179.3 988.42 1169.89 894.757C1161.24 808.68 1268.33 735.31 1386.37 727.42C1520.09 718.481 1572.73 786.752 1551.3 883.278Z" fill="#38D99E" fill-opacity="0.36"/>
<path d="M2148.3 53.2968C2132.39 124.946 2170.56 163.423 2046.14 229.213C1933.43 288.804 1746.53 166.825 1736.37 65.692C1727.03 -27.2503 1842.69 -106.472 1970.17 -114.992C2114.59 -124.644 2171.43 -50.927 2148.3 53.2968Z" fill="#38D99E" fill-opacity="0.4"/>
<path d="M275.624 285.785C262.719 342.168 293.692 372.447 192.724 424.219C101.27 471.113 -50.3886 375.124 -58.6327 295.539C-66.2092 222.4 27.6382 160.058 131.081 153.353C248.271 145.758 294.398 203.768 275.624 285.785Z" fill="#38D99E" fill-opacity="0.4"/>
<path d="M1317.98 -61.6871C1303.25 4.66994 1338.6 40.3051 1223.39 101.235C1119.03 156.425 945.974 43.4552 936.567 -50.2074C927.922 -136.285 1035.01 -209.655 1153.04 -217.545C1286.77 -226.484 1339.4 -158.212 1317.98 -61.6871Z" fill="#38D99E" fill-opacity="0.4"/>
<path d="M1820.94 520.55C1809.97 570.013 1836.31 596.575 1750.43 641.992C1672.63 683.13 1543.63 598.923 1536.62 529.107C1530.17 464.945 1610 410.255 1697.99 404.374C1797.68 397.711 1836.91 448.6 1820.94 520.55Z" fill="#38D99E" fill-opacity="0.4"/>
<path d="M347.783 572.82C358.761 622.283 332.414 648.845 418.3 694.263C496.093 735.401 625.097 651.193 632.11 581.377C638.555 517.216 558.726 462.526 470.735 456.644C371.051 449.981 331.814 500.87 347.783 572.82Z" fill="#38D99E" fill-opacity="0.4"/>
<path d="M2007.96 593.396C2007.96 670.66 1833.12 786.005 1709.27 750.207C1617.53 723.689 1681.87 657.337 1681.87 580.072C1681.87 502.807 1724.19 491.93 1830.15 491.93C1936.11 491.93 2007.96 516.131 2007.96 593.396Z" fill="#656BFF" fill-opacity="0.3"/>
<path d="M-59.0625 622.093C-59.0625 699.358 115.772 814.702 239.62 778.904C331.362 752.386 267.028 686.034 267.028 608.769C267.028 531.505 224.702 520.627 118.741 520.627C12.7803 520.627 -59.0625 544.829 -59.0625 622.093Z" fill="#656BFF" fill-opacity="0.3"/>
<path d="M982.46 831.879C982.46 920.328 781.522 1060.58 593.943 1019.6C454.99 989.246 399.152 861.664 399.152 773.215C399.152 684.766 463.258 672.314 623.747 672.314C784.235 672.314 982.46 743.429 982.46 831.879Z" fill="#7D82FF" fill-opacity="0.4"/>
<path d="M1539.06 24.1534C1539.06 82.4379 1406.4 174.86 1282.55 147.856C1190.81 127.852 1153.94 43.781 1153.94 -14.5035C1153.94 -72.788 1196.27 -80.9934 1302.23 -80.9934C1408.19 -80.9934 1539.06 -34.1311 1539.06 24.1534Z" fill="#7D82FF" fill-opacity="0.4"/>
<path d="M1554.52 409.519C1554.52 467.803 1421.86 560.225 1298.01 533.221C1206.27 513.217 1169.4 429.146 1169.4 370.862C1169.4 312.577 1211.73 304.372 1317.69 304.372C1423.65 304.372 1554.52 351.234 1554.52 409.519Z" fill="#7D82FF" fill-opacity="0.4"/>
<path d="M988.083 277.082C988.083 342.439 839.166 446.076 700.15 415.795C597.172 393.364 401.963 263.034 401.963 197.676C401.963 132.319 603.299 159.176 722.238 159.176C841.177 159.176 988.083 211.725 988.083 277.082Z" fill="#7D82FF" fill-opacity="0.4"/>
</g>
</g>
<defs>
<filter id="filter0_f_3001_172882" x="-259.062" y="-418.331" width="2612.36" height="1679.08" filterUnits="userSpaceOnUse" color-interpolation-filters="sRGB">
<feFlood flood-opacity="0" result="BackgroundImageFix"/>
<feBlend mode="normal" in="SourceGraphic" in2="BackgroundImageFix" result="shape"/>
<feGaussianBlur stdDeviation="100" result="effect1_foregroundBlur_3001_172882"/>
</filter>
</defs>
</svg>
